X: 3183
T: Bee Minor, The
R: reel
M: 4/4
K: Bminor
|:FBBA Bcde|(3fed ed edBA|FBBA Bcde|(3fed ed B2BA|
FBBA Bcde|(3fed ed edB2|~b3a ~f3e|1 dBcA B2BA:|2 dBcA B2B2||
|:~b3a ~f3e|d~B3 f~B3|~b3a ~f3e|dBcA B2B2|
~b3a ~f3e|d~B3 f~B3|FBBA Bcde|1 (3fed ed B2B2:|2 (3fed ed B2BA||

